X: 1
T: Constant Billy
O: Adderbury
C: Trad
R: Morris
M: 6/8
L: 1/8
K: G
Z: ABC transcription by Verge Roller
r: 24
|: D | "G" G2 d BGB | "Am" c2 A "D" F2 D | "G"  BAG "C" E2 E | "D" DEF "G" G2 :|
|: d | "G" Bcd "C" e2 e| "D" ABc "G" d2 d | "G" Bcd "C" e2 e | "Am" ABc "D" def |
"G" g2 d BGB | "Am" c2 A "D" F2 D | "G" BAG "C" E2 E | "D" DEF "G" G2 :|
